X:12
T:Midnight in Rosine
C:Bill Evans, solo by Mike Compton
N:From the Bill Evans CD "Native and Fine" Transcribed by Mike Stangeland
L:1/8
Q:1/4=130
M:4/4
K:F
z2 AA cA _dD | "Dm"[dA][dA] [dA][dA] [dA]f dA | "C"[c2G2] ce dc [AD]B | "G"=Bd [d4D4] Bd | 
"Bb"Fd z4 Bd | "A"{G}A4 zA c_d | {G}A2 GG E2 GG | {G}A4 zc _dA | "G"AG z6 | "Dm"z[_d_A] [=d=A][dA] [dA][fA] [d2A2] | 
"C"z[=B_G] [c=G][cG] [cG][_eG] [c2G2] | "G"[=B2G2] [B2G2] Bd B2 | "Bb"Bd fd Bd BA | 
{_A}"A"=AA {_A}=AA A{_a}=a ge | z{c}_d AG F2 E2 | "Dm"{C}D[AD] D[AD] D[AD] D[AD] | 
D[AD] D[AD] D{G}A [dA][dA] | "Dm"[AA][dA] [fA][fA] [gA][fA] [dA][dA] | [cG]"C"[cG] [_eG][eG] =e[_eG] [cG][cG] | 
"G"zB =Bd {_B}=BG {_B}=Bd | "Bb"B4 zd BA | "A"{G}A2 AA AA eA | Ae AA eA GA | Ae AA eA GA | 
"G"AG AG Ae AG | "Dm"[d2A2] [f2A2] [gA][fA] [dA]=B | "C"[ec][ec] ee dc cB | "G"B=B B3[BG=B,] [BGB,][BGB,] | 
"Bb"[BDB,]d d4 [DB,]d | {G}"A"AA AA Aa {c}_dA | z3G FD E_D | "Dm"{_D}=D2 [ADD][ADD] [ADD][ADD] [ADD][ADD] | 
[D2D2] [DD][DD] DE F_G | "G"[=B2G2G,2] [BGG,][BGG,] Be d2 | "Bb"zf ed BB BB | 
"Dm"zd cA _A=A GA | FA EA DE FD | "G"GG GA =Be dA | "Bb"Bf ed B2 BA | {_A}"A"=A2 AA ae dA | 
"G"G=B dg dB GD | "Dm"[_d_A][=d=A] [dA][fA] [gA][fA] [d2A2] | "C"[c2G2] [cG]e dc AB | 
"G"=B[dD] [dD][dD] [dD][dD] [BD][BD] | "Bb"[B2D2B,2] [BDB,][BDB,] [BD][dD] [BD][dD] | 
"A"{G}AA _de a{g}_a e=d | _dG GF F2 ED | "Dm"D2 C6 | "Dm"z2 [ADC][AD] [AD][AE] [AF][AD] | 
"G"[=B/G/][B/G/][B/G/][B/G/] "(Exit Bridge)"[B/G/][B/G/][B/G/][B/G/] [B/G/][B/G/][B/G/][B/G/] [d/B/][d/B/][d/B/][d/B/] | 
"Bb"[d/B/][d/B/][d/B/][d/B/] [d/B/][d/B/][d/B/][d/B/] [dB][dB] [dB][dB] | "Dm"z[fA] [dA][fA] [dA][dA] [dA][dA] | 
[f2A2] [dD][cD] [AD][AG] [AF][AD] | "G"[G/G,/][G/G,/][G/G,/][G/G,/] [G/G,/][G/G,/][G/G,/][G/G,/] [G/G,/][G/G,/][G/G,/][G/G,/] [_A/G,/][A/G,/][=A/G,/][A/G,/] | 
"Bb"[d/B/][d/B/][d/B/][d/B/] [d/B/][d/B/][d/B/][d/B/] [d/B/][d/B/][d/B/][d/B/] [d2B2] | 
"A"[_d/A/][d/A/][d/A/][d/A/] [d/A/][d/A/][d/A/][d/A/] [d/A/][d/A/][d/A/][d/A/] [d/A/][d/A/][dA] | 
"G"[A/A/][A/A/][A/A/][A/A/] [A/A/][A/A/][A/A/][A/A/] [A/A/][A/A/][A/A/][A/A/] c_d | 
"Dm"[d3D3D3]f gf dA | "C"[c2G2] [cG]e dc AB | "G"=Bd2B de dB | "Bb"[B6D6] G_A | 
"A"A_d EA d2 =Bc | _de dA GA FE | "Dm"DD CD =B,D _B,D | [A8D8A,8] | 


